X: 5
M: 6/8
L: 1/8
K: G
V: 1
d |\
EGc EGc | FAd FAd | c2B A2G | A2D D2d |
EGc EGc | FAd FAd | c2B AGF | G2G, HG,2 |]
d |\
g2g gfe | a2a agf | efg fed | c2B A2a |\
faf eae | faf eae | fgf ed^c | d2d "_Da Capo"d2 |]
V: 2 clef=bass middle=d
z |\
g2b d'2d | g2G G2f | g3 d3 | g3 G2B |
c3 c3 | d3 d3 | fg2 c2e | d3 def | g2b d'2d |
g2g g2f | g3 d3 | g2b g2b | c'3 c3 | d3 d3 |
efg c2d | g3 HG2 |] z | e3 ^c3 | f3 d3 | g3 ^g3 |
a3 A3 | d3 ^c3 | d3 ^c3 | d3 A3 | d3 "^Da Capo"d2 |]


